;FLAVOR:Marlin
;TIME:39
;Filament used: 0.0500785m
;Layer height: 0.2
;MINX:90.2
;MINY:90.2
;MINZ:0.3
;MAXX:109.8
;MAXY:109.8
;MAXZ:0.3
;TARGET_MACHINE.NAME:Prusa i3
;Generated with Cura_SteamEngine 5.9.0
;M140 S60 ;set bed temperature
;M105
;M190 S60
M104 S200
M105
M109 S200
M82 ;absolute extrusion mode
G21 ;metric values
G90 ;absolute positioning
M82 ;set extruder to absolute mode
M107 ;start with the fan off
G28 X0 Y0 ;move X/Y to min endstops
G28 Z0 ;move Z to min endstops
G1 Z15.0 F9000 ;move the platform down 15mm
G92 E0 ;zero the extruded length
G1 F200 E30 ;extrude 3mm of feed stock
G92 E0 ;zero the extruded length again
G1 F9000
;Put printing message on LCD screen
M117 Printing...
G92 E0
G92 E0
G1 F1500 E-6.5
;LAYER_COUNT:1
;LAYER:0
M107
;MESH:PracticePart.STL
G0 F3600 X109.4 Y109.4 Z0.24
;TYPE:WALL-INNER
G1 F1500 E0
G1 F1800 X109.4 Y90.6 E0.93794
G1 X90.6 Y90.6 E1.87587
G1 X90.6 Y109.4 E2.81381
G1 X109.4 Y109.4 E3.75174
G0 F3600 X109.8 Y109.8
;TYPE:WALL-OUTER
G1 F1800 X109.8 Y90.2 E4.72959
G1 X90.2 Y90.2 E5.70744
G1 X90.2 Y109.8 E6.68529
G1 X109.8 Y109.8 E7.66314
G0 F3600 X109.8 Y109.6
G0 X109.02 Y109.02
;TYPE:SKIN
G1 F1800 X90.98 Y109.02 E8.56315
G1 X90.98 Y90.98 E9.46317
G1 X109.02 Y90.98 E10.36319
G1 X109.02 Y109.02 E11.26321
G0 F3600 X108.716 Y91.18
G1 F1800 X108.82 Y91.284 E11.27055
G0 F3600 X108.82 Y91.85
G1 F1800 X108.151 Y91.18 E11.31779
G0 F3600 X107.585 Y91.18
G1 F1800 X108.82 Y92.415 E11.40492
G0 F3600 X108.82 Y92.981
G1 F1800 X107.019 Y91.18 E11.53199
G0 F3600 X106.454 Y91.18
G1 F1800 X108.82 Y93.547 E11.69896
G0 F3600 X108.82 Y94.112
G1 F1800 X105.888 Y91.18 E11.90583
G0 F3600 X105.322 Y91.18
G1 F1800 X108.82 Y94.678 E12.15263
G0 F3600 X108.82 Y95.244
G1 F1800 X104.756 Y91.18 E12.43937
G0 F3600 X104.191 Y91.18
G1 F1800 X108.82 Y95.809 E12.76597
G0 F3600 X108.82 Y96.375
G1 F1800 X103.625 Y91.18 E13.13251
G0 F3600 X103.059 Y91.18
G1 F1800 X108.82 Y96.941 E13.53898
G0 F3600 X108.82 Y97.506
G1 F1800 X102.494 Y91.18 E13.98531
G0 F3600 X101.928 Y91.18
G1 F1800 X108.82 Y98.072 E14.47158
G0 F3600 X108.82 Y98.638
G1 F1800 X101.362 Y91.18 E14.99778
G0 F3600 X100.797 Y91.18
G1 F1800 X108.82 Y99.204 E15.56388
G0 F3600 X108.82 Y99.769
G1 F1800 X100.231 Y91.18 E16.16988
G0 F3600 X99.665 Y91.18
G1 F1800 X108.82 Y100.335 E16.81582
G0 F3600 X108.82 Y100.901
G1 F1800 X99.1 Y91.18 E17.50165
G0 F3600 X98.534 Y91.18
G1 F1800 X108.82 Y101.466 E18.22738
G0 F3600 X108.82 Y102.032
G1 F1800 X97.968 Y91.18 E18.99305
G0 F3600 X97.403 Y91.18
G1 F1800 X108.82 Y102.598 E19.79862
G0 F3600 X108.82 Y103.163
G1 F1800 X96.837 Y91.18 E20.64408
G0 F3600 X96.271 Y91.18
G1 F1800 X108.82 Y103.729 E21.52948
G0 F3600 X108.82 Y104.295
G1 F1800 X95.705 Y91.18 E22.45482
G0 F3600 X95.14 Y91.18
G1 F1800 X108.82 Y104.86 E23.42001
G0 F3600 X108.82 Y105.426
G1 F1800 X94.574 Y91.18 E24.42515
G0 F3600 X94.008 Y91.18
G1 F1800 X108.82 Y105.992 E25.47021
G0 F3600 X108.82 Y106.557
G1 F1800 X93.443 Y91.18 E26.55514
G0 F3600 X92.877 Y91.18
G1 F1800 X108.82 Y107.123 E27.68001
G0 F3600 X108.82 Y107.689
G1 F1800 X92.311 Y91.18 E28.84481
G0 F3600 X91.746 Y91.18
G1 F1800 X108.82 Y108.255 E30.0495
G0 F3600 X108.82 Y108.82
G1 F1800 X91.18 Y91.18 E31.2941
G0 F3600 X91.18 Y91.746
G1 F1800 X108.254 Y108.819 E32.49873
G0 F3600 X107.688 Y108.819
G1 F1800 X91.18 Y92.311 E33.66346
G0 F3600 X91.18 Y92.877
G1 F1800 X107.122 Y108.819 E34.78825
G0 F3600 X106.557 Y108.819
G1 F1800 X91.18 Y93.443 E35.87315
G0 F3600 X91.18 Y94.008
G1 F1800 X105.991 Y108.819 E36.91814
G0 F3600 X105.425 Y108.819
G1 F1800 X91.18 Y94.574 E37.92321
G0 F3600 X91.18 Y95.14
G1 F1800 X104.86 Y108.819 E38.88837
G0 F3600 X104.294 Y108.819
G1 F1800 X91.18 Y95.705 E39.81363
G0 F3600 X91.18 Y96.271
G1 F1800 X103.728 Y108.819 E40.69896
G0 F3600 X103.163 Y108.819
G1 F1800 X91.18 Y96.837 E41.54439
G0 F3600 X91.18 Y97.403
G1 F1800 X102.597 Y108.819 E42.34989
G0 F3600 X102.031 Y108.819
G1 F1800 X91.18 Y97.968 E43.11548
G0 F3600 X91.18 Y98.534
G1 F1800 X101.466 Y108.819 E43.84118
G0 F3600 X100.9 Y108.819
G1 F1800 X91.18 Y99.1 E44.52694
G0 F3600 X91.18 Y99.665
G1 F1800 X100.334 Y108.819 E45.17281
G0 F3600 X99.769 Y108.819
G1 F1800 X91.18 Y100.231 E45.77877
G0 F3600 X91.18 Y100.797
G1 F1800 X99.203 Y108.819 E46.3448
G0 F3600 X98.637 Y108.819
G1 F1800 X91.18 Y101.362 E46.87094
G0 F3600 X91.18 Y101.928
G1 F1800 X98.071 Y108.819 E47.35713
G0 F3600 X97.506 Y108.819
G1 F1800 X91.18 Y102.494 E47.80343
G0 F3600 X91.18 Y103.059
G1 F1800 X96.94 Y108.819 E48.20983
G0 F3600 X96.374 Y108.819
G1 F1800 X91.18 Y103.625 E48.57629
G0 F3600 X91.18 Y104.191
G1 F1800 X95.809 Y108.819 E48.90286
G0 F3600 X95.243 Y108.819
G1 F1800 X91.18 Y104.756 E49.18953
G0 F3600 X91.18 Y105.322
G1 F1800 X94.677 Y108.819 E49.43626
G0 F3600 X94.112 Y108.819
G1 F1800 X91.18 Y105.888 E49.64309
G0 F3600 X91.18 Y106.454
G1 F1800 X93.546 Y108.819 E49.80999
G0 F3600 X92.98 Y108.819
G1 F1800 X91.18 Y107.019 E49.93699
G0 F3600 X91.18 Y107.585
G1 F1800 X92.415 Y108.819 E50.02409
G0 F3600 X91.849 Y108.819
G1 F1800 X91.18 Y108.151 E50.07126
G0 F3600 X91.18 Y108.716
G1 F1800 X91.283 Y108.819 E50.07853
G0 F3600 X91.283 Y108.79
;TIME_ELAPSED:39.552940
G1 F1500 E43.57853
M140 S0
M104 S0 ;extruder heater off
M140 S0 ;heated bed heater off (if you have it)
G91 ;relative positioning
G1 E-1 F300  ;retract the filament a bit before lifting the nozzle, to release some of the pressure
G1 Z+0.5 E-5 X-20 Y-20 F9000 ;move Z up a bit and retract filament even more
G28 X0 Y0 ;move X/Y to min endstops, so the head is out of the way
M84 ;steppers off
G90 ;absolute positioning
M82 ;absolute extrusion mode
M104 S0
;End of Gcode
;SETTING_3 {"global_quality": "[general]\\nversion = 4\\nname = Draft #2\\ndefin
;SETTING_3 ition = prusa_i3\\n\\n[metadata]\\ntype = quality_changes\\nquality_t
;SETTING_3 ype = draft\\nsetting_version = 24\\n\\n[values]\\nadhesion_type = no
;SETTING_3 ne\\n\\n", "extruder_quality": ["[general]\\nversion = 4\\nname = Dra
;SETTING_3 ft #2\\ndefinition = prusa_i3\\n\\n[metadata]\\ntype = quality_change
;SETTING_3 s\\nquality_type = draft\\nsetting_version = 24\\nposition = 0\\n\\n[
;SETTING_3 values]\\ninfill_pattern = zigzag\\n\\n"]}
