;FLAVOR:Marlin
;TIME:981
;Filament used: 0.35815m
;Layer height: 0.2
;MINX:90.2
;MINY:90.2
;MINZ:0.3
;MAXX:109.8
;MAXY:109.8
;MAXZ:2.9
;TARGET_MACHINE.NAME:Prusa i3
;Exported with Cura-DuetRRF v1.2.11 plugin by Thomas Kriechbaumer
;Generated with Cura_SteamEngine 5.9.0

;M140 S60
;M105
;M190 S60
;M104 S200
;M105
;M109 S200
;M82 ;absolute extrusion mode
;G21 ;metric values
;G90 ;absolute positioning
;M82 ;set extruder to absolute mode
;M107 ;start with the fan off
;G28 X0 Y0 ;move X/Y to min endstops
;G28 Z0 ;move Z to min endstops
;G1 Z15.0 F9000 ;move the platform down 15mm
;G92 E0 ;zero the extruded length
;G1 F200 E30 ;extrude 3mm of feed stock
;G92 E0 ;zero the extruded length again
;G1 F9000
;;Put printing message on LCD screen
;M117 Printing...
;G92 E0
;G92 E0
;G1 F1500 E-4
;;LAYER_COUNT:14
;;LAYER:0
;M107
;;MESH:PracticePartv2.STL

M104 S200 ; Set nozzle temperature
M105 ; Ask for nozzle temperature
M109 S200 ; Wait till nozzle temperature has been reached
M82  ; Use absolute extrusion mode
G21  ; Metric values
G90  ; Absolute positioning

G28  ; Home all axes
G90  ; Ensure absolute positioning
G1 X0 Y0 Z15 F1800  ; Move up before extruding

G92 E0
G1 F200 E20  ; Extrude 20mm of filament
G1 E18 F2400 ; Retract 2mm of filament

G0 F600 X109.4 Y109.4 Z0.3
;TYPE:WALL-INNER
G1 F1500 E20
G92 E0

G1 F600 X109.4 Y90.6 E0.93794
G1 X90.6 Y90.6 E1.87587
G1 X90.6 Y109.4 E2.81381
G1 X109.4 Y109.4 E3.75174
G0 X109.8 Y109.8
;TYPE:WALL-OUTER
G1 X109.8 Y90.2 E4.72959
G1 X90.2 Y90.2 E5.70744
G1 X90.2 Y109.8 E6.68529
G1 X109.8 Y109.8 E7.66314
G0 X109.8 Y109.6
G0 X109.02 Y109.02
;TYPE:SKIN
G1 X90.98 Y109.02 E8.56315
G1 X90.98 Y90.98 E9.46317
G1 X109.02 Y90.98 E10.36319
G1 X109.02 Y109.02 E11.26321
G0 X108.716 Y91.18
G1 X108.82 Y91.284 E11.27055
G0 X108.82 Y91.85
G1 X108.151 Y91.18 E11.31779
G0 X107.585 Y91.18
G1 X108.82 Y92.415 E11.40492
G0 X108.82 Y92.981
G1 X107.019 Y91.18 E11.53199
G0 X106.454 Y91.18
G1 X108.82 Y93.547 E11.69896
G0 X108.82 Y94.112
G1 X105.888 Y91.18 E11.90583
G0 X105.322 Y91.18
G1 X108.82 Y94.678 E12.15263
G0 X108.82 Y95.244
G1 X104.756 Y91.18 E12.43937
G0 X104.191 Y91.18
G1 X108.82 Y95.809 E12.76597
G0 X108.82 Y96.375
G1 X103.625 Y91.18 E13.13251
G0 X103.059 Y91.18
G1 X108.82 Y96.941 E13.53898
G0 X108.82 Y97.506
G1 X102.494 Y91.18 E13.98531
G0 X101.928 Y91.18
G1 X108.82 Y98.072 E14.47158
G0 X108.82 Y98.638
G1 X101.362 Y91.18 E14.99778
G0 X100.797 Y91.18
G1 X108.82 Y99.204 E15.56388
G0 X108.82 Y99.769
G1 X100.231 Y91.18 E16.16988
G0 X99.665 Y91.18
G1 X108.82 Y100.335 E16.81582
G0 X108.82 Y100.901
G1 X99.1 Y91.18 E17.50165
G0 X98.534 Y91.18
G1 X108.82 Y101.466 E18.22738
G0 X108.82 Y102.032
G1 X97.968 Y91.18 E18.99305
G0 X97.403 Y91.18
G1 X108.82 Y102.598 E19.79862
G0 X108.82 Y103.163
G1 X96.837 Y91.18 E20.64408
G0 X96.271 Y91.18
G1 X108.82 Y103.729 E21.52948
G0 X108.82 Y104.295
G1 X95.705 Y91.18 E22.45482
G0 X95.14 Y91.18
G1 X108.82 Y104.86 E23.42001
G0 X108.82 Y105.426
G1 X94.574 Y91.18 E24.42515
G0 X94.008 Y91.18
G1 X108.82 Y105.992 E25.47021
G0 X108.82 Y106.557
G1 X93.443 Y91.18 E26.55514
G0 X92.877 Y91.18
G1 X108.82 Y107.123 E27.68001
G0 X108.82 Y107.689
G1 X92.311 Y91.18 E28.84481
G0 X91.746 Y91.18
G1 X108.82 Y108.255 E30.0495
G0 X108.82 Y108.82
G1 X91.18 Y91.18 E31.2941
G0 X91.18 Y91.746
G1 X108.254 Y108.819 E32.49873
G0 X107.688 Y108.819
G1 X91.18 Y92.311 E33.66346
G0 X91.18 Y92.877
G1 X107.122 Y108.819 E34.78825
G0 X106.557 Y108.819
G1 X91.18 Y93.443 E35.87315
G0 X91.18 Y94.008
G1 X105.991 Y108.819 E36.91814
G0 X105.425 Y108.819
G1 X91.18 Y94.574 E37.92321
G0 X91.18 Y95.14
G1 X104.86 Y108.819 E38.88837
G0 X104.294 Y108.819
G1 X91.18 Y95.705 E39.81363
G0 X91.18 Y96.271
G1 X103.728 Y108.819 E40.69896
G0 X103.163 Y108.819
G1 X91.18 Y96.837 E41.54439
G0 X91.18 Y97.403
G1 X102.597 Y108.819 E42.34989
G0 X102.031 Y108.819
G1 X91.18 Y97.968 E43.11548
G0 X91.18 Y98.534
G1 X101.466 Y108.819 E43.84118
G0 X100.9 Y108.819
G1 X91.18 Y99.1 E44.52694
G0 X91.18 Y99.665
G1 X100.334 Y108.819 E45.17281
G0 X99.769 Y108.819
G1 X91.18 Y100.231 E45.77877
G0 X91.18 Y100.797
G1 X99.203 Y108.819 E46.3448
G0 X98.637 Y108.819
G1 X91.18 Y101.362 E46.87094
G0 X91.18 Y101.928
G1 X98.071 Y108.819 E47.35713
G0 X97.506 Y108.819
G1 X91.18 Y102.494 E47.80343
G0 X91.18 Y103.059
G1 X96.94 Y108.819 E48.20983
G0 X96.374 Y108.819
G1 X91.18 Y103.625 E48.57629
G0 X91.18 Y104.191
G1 X95.809 Y108.819 E48.90286
G0 X95.243 Y108.819
G1 X91.18 Y104.756 E49.18953
G0 X91.18 Y105.322
G1 X94.677 Y108.819 E49.43626
G0 X94.112 Y108.819
G1 X91.18 Y105.888 E49.64309
G0 X91.18 Y106.454
G1 X93.546 Y108.819 E49.80999
G0 X92.98 Y108.819
G1 X91.18 Y107.019 E49.93699
G0 X91.18 Y107.585
G1 X92.415 Y108.819 E50.02409
G0 X91.849 Y108.819
G1 X91.18 Y108.151 E50.07126
G0 X91.18 Y108.716
G1 X91.283 Y108.819 E50.07853
G0 X91.283 Y108.79
;MESH:NONMESH
G0 X91.283 Y108.79 Z0.5
G0 X109.12 Y109.12
G0 X109.4 Y109.4
;TIME_ELAPSED:124.623818
;LAYER:1
M106 S255
;TYPE:WALL-INNER
;MESH:PracticePartv2.STL
G1 F900 X109.4 Y90.6 E50.70382
G1 X90.6 Y90.6 E51.32911
G1 X90.6 Y109.4 E51.9544
G1 X109.4 Y109.4 E52.57969
G0 X109.8 Y109.8
;TYPE:WALL-OUTER
G1 F600 X109.8 Y90.2 E53.23159
G1 X90.2 Y90.2 E53.88348
G1 X90.2 Y109.8 E54.53538
G1 X109.8 Y109.8 E55.18728
G0 F900 X109.8 Y109.6
G0 X109.02 Y109.02
;TYPE:SKIN
G1 F600 X90.98 Y109.02 E55.78729
G1 X90.98 Y90.98 E56.38731
G1 X109.02 Y90.98 E56.98732
G1 X109.02 Y109.02 E57.58733
G0 F900 X108.819 Y108.404
G1 F600 X108.403 Y108.82 E57.6069
G0 F900 X107.837 Y108.82
G1 F600 X108.819 Y107.838 E57.65309
G0 F900 X108.819 Y107.272
G1 F600 X107.272 Y108.82 E57.72588
G0 F900 X106.706 Y108.82
G1 F600 X108.819 Y106.707 E57.82527
G0 F900 X108.819 Y106.141
G1 F600 X106.14 Y108.82 E57.95128
G0 F900 X105.575 Y108.82
G1 F600 X108.819 Y105.575 E58.10389
G0 F900 X108.819 Y105.01
G1 F600 X105.009 Y108.82 E58.2831
G0 F900 X104.443 Y108.82
G1 F600 X108.819 Y104.444 E58.48894
G0 F900 X108.819 Y103.878
G1 F600 X103.878 Y108.82 E58.72137
G0 F900 X103.312 Y108.82
G1 F600 X108.819 Y103.313 E58.9804
G0 F900 X108.819 Y102.747
G1 F600 X102.746 Y108.82 E59.26606
G0 F900 X102.18 Y108.82
G1 F600 X108.819 Y102.181 E59.57834
G0 F900 X108.819 Y101.615
G1 F600 X101.615 Y108.82 E59.91721
G0 F900 X101.049 Y108.82
G1 F600 X108.819 Y101.05 E60.28269
G0 F900 X108.819 Y100.484
G1 F600 X100.483 Y108.82 E60.67479
G0 F900 X99.918 Y108.82
G1 F600 X108.819 Y99.918 E61.09349
G0 F900 X108.819 Y99.353
G1 F600 X99.352 Y108.82 E61.53879
G0 F900 X98.786 Y108.82
G1 F600 X108.819 Y98.787 E62.01071
G0 F900 X108.819 Y98.221
G1 F600 X98.221 Y108.82 E62.50923
G0 F900 X97.655 Y108.82
G1 F600 X108.819 Y97.656 E63.03435
G0 F900 X108.819 Y97.09
G1 F600 X97.089 Y108.82 E63.58609
G0 F900 X96.524 Y108.82
G1 F600 X108.819 Y96.524 E64.16444
G0 F900 X108.819 Y95.959
G1 F600 X95.958 Y108.82 E64.76938
G0 F900 X95.392 Y108.82
G1 F600 X108.819 Y95.393 E65.40094
G0 F900 X108.819 Y94.827
G1 F600 X94.827 Y108.82 E66.05911
G0 F900 X94.261 Y108.82
G1 F600 X108.819 Y94.262 E66.74387
G0 F900 X108.819 Y93.696
G1 F600 X93.695 Y108.82 E67.45526
G0 F900 X93.129 Y108.82
G1 F600 X108.819 Y93.13 E68.19327
G0 F900 X108.819 Y92.565
G1 F600 X92.564 Y108.82 E68.95785
G0 F900 X91.998 Y108.82
G1 F600 X108.819 Y91.999 E69.74906
G0 F900 X108.819 Y91.433
G1 F600 X91.432 Y108.82 E70.56689
G0 F900 X91.18 Y108.507
G1 F600 X108.507 Y91.18 E71.3819
G0 F900 X107.941 Y91.18
G1 F600 X91.18 Y107.941 E72.17029
G0 F900 X91.18 Y107.376
G1 F600 X107.376 Y91.18 E72.9321
G0 F900 X106.81 Y91.18
G1 F600 X91.18 Y106.81 E73.66729
G0 F900 X91.18 Y106.244
G1 F600 X106.244 Y91.18 E74.37585
G0 F900 X105.679 Y91.18
G1 F600 X91.18 Y105.679 E75.05784
G0 F900 X91.18 Y105.113
G1 F600 X105.113 Y91.18 E75.7132
G0 F900 X104.547 Y91.18
G1 F600 X91.18 Y104.547 E76.34195
G0 F900 X91.18 Y103.981
G1 F600 X103.981 Y91.18 E76.94407
G0 F900 X103.416 Y91.18
G1 F600 X91.18 Y103.416 E77.51961
G0 F900 X91.18 Y102.85
G1 F600 X102.85 Y91.18 E78.06853
G0 F900 X102.284 Y91.18
G1 F600 X91.18 Y102.284 E78.59083
G0 F900 X91.18 Y101.719
G1 F600 X101.719 Y91.18 E79.08655
G0 F900 X101.153 Y91.18
G1 F600 X91.18 Y101.153 E79.55565
G0 F900 X91.18 Y100.587
G1 F600 X100.587 Y91.18 E79.99813
G0 F900 X100.022 Y91.18
G1 F600 X91.18 Y100.022 E80.41403
G0 F900 X91.18 Y99.456
G1 F600 X99.456 Y91.18 E80.80331
G0 F900 X98.89 Y91.18
G1 F600 X91.18 Y98.89 E81.16596
G0 F900 X91.18 Y98.325
G1 F600 X98.325 Y91.18 E81.50204
G0 F900 X97.759 Y91.18
G1 F600 X91.18 Y97.759 E81.8115
G0 F900 X91.18 Y97.193
G1 F600 X97.193 Y91.18 E82.09433
G0 F900 X96.628 Y91.18
G1 F600 X91.18 Y96.628 E82.35059
G0 F900 X91.18 Y96.062
G1 F600 X96.062 Y91.18 E82.58022
G0 F900 X95.496 Y91.18
G1 F600 X91.18 Y95.496 E82.78323
G0 F900 X91.18 Y94.93
G1 F600 X94.93 Y91.18 E82.95962
G0 F900 X94.365 Y91.18
G1 F600 X91.18 Y94.365 E83.10943
G0 F900 X91.18 Y93.799
G1 F600 X93.799 Y91.18 E83.23262
G0 F900 X93.233 Y91.18
G1 F600 X91.18 Y93.233 E83.32919
G0 F900 X91.18 Y92.668
G1 F600 X92.668 Y91.18 E83.39918
G0 F900 X92.102 Y91.18
G1 F600 X91.18 Y92.102 E83.44255
G0 F900 X91.18 Y91.536
G1 F600 X91.536 Y91.18 E83.45929
G0 F900 X91.536 Y91.21
;MESH:NONMESH
G0 F600 X91.536 Y91.21 Z0.7
G0 F900 X109.12 Y109.12
G0 X109.4 Y109.4
;TIME_ELAPSED:226.747343
;LAYER:2
;TYPE:WALL-INNER
;MESH:PracticePartv2.STL
G1 F1200 X109.4 Y90.6 E84.08458
G1 X90.6 Y90.6 E84.70987
G1 X90.6 Y109.4 E85.33517
G1 X109.4 Y109.4 E85.96046
G0 X109.8 Y109.8
;TYPE:WALL-OUTER
G1 F600 X109.8 Y90.2 E86.61235
G1 X90.2 Y90.2 E87.26425
G1 X90.2 Y109.8 E87.91615
G1 X109.8 Y109.8 E88.56805
G0 F1200 X109.8 Y109.6
G0 X109.02 Y109.02
;TYPE:SKIN
G1 F600 X90.98 Y109.02 E89.16806
G1 X90.98 Y90.98 E89.76808
G1 X109.02 Y90.98 E90.36809
G1 X109.02 Y109.02 E90.9681
G0 F1200 X108.716 Y91.18
G1 F600 X108.82 Y91.284 E90.97299
G0 F1200 X108.82 Y91.85
G1 F600 X108.151 Y91.18 E91.00448
G0 F1200 X107.585 Y91.18
G1 F600 X108.82 Y92.415 E91.06258
G0 F1200 X108.82 Y92.981
G1 F600 X107.019 Y91.18 E91.14729
G0 F1200 X106.454 Y91.18
G1 F600 X108.82 Y93.547 E91.2586
G0 F1200 X108.82 Y94.112
G1 F600 X105.888 Y91.18 E91.39651
G0 F1200 X105.322 Y91.18
G1 F600 X108.82 Y94.678 E91.56105
G0 F1200 X108.82 Y95.244
G1 F600 X104.756 Y91.18 E91.75221
G0 F1200 X104.191 Y91.18
G1 F600 X108.82 Y95.809 E91.96994
G0 F1200 X108.82 Y96.375
G1 F600 X103.625 Y91.18 E92.2143
G0 F1200 X103.059 Y91.18
G1 F600 X108.82 Y96.941 E92.48528
G0 F1200 X108.82 Y97.506
G1 F600 X102.494 Y91.18 E92.78283
G0 F1200 X101.928 Y91.18
G1 F600 X108.82 Y98.072 E93.10701
G0 F1200 X108.82 Y98.638
G1 F600 X101.362 Y91.18 E93.45781
G0 F1200 X100.797 Y91.18
G1 F600 X108.82 Y99.204 E93.83521
G0 F1200 X108.82 Y99.769
G1 F600 X100.231 Y91.18 E94.23921
G0 F1200 X99.665 Y91.18
G1 F600 X108.82 Y100.335 E94.66984
G0 F1200 X108.82 Y100.901
G1 F600 X99.1 Y91.18 E95.12706
G0 F1200 X98.534 Y91.18
G1 F600 X108.82 Y101.466 E95.61088
G0 F1200 X108.82 Y102.032
G1 F600 X97.968 Y91.18 E96.12133
G0 F1200 X97.403 Y91.18
G1 F600 X108.82 Y102.598 E96.65837
G0 F1200 X108.82 Y103.163
G1 F600 X96.837 Y91.18 E97.22201
G0 F1200 X96.271 Y91.18
G1 F600 X108.82 Y103.729 E97.81228
G0 F1200 X108.82 Y104.295
G1 F600 X95.705 Y91.18 E98.42917
G0 F1200 X95.14 Y91.18
G1 F600 X108.82 Y104.86 E99.07264
G0 F1200 X108.82 Y105.426
G1 F600 X94.574 Y91.18 E99.74272
G0 F1200 X94.008 Y91.18
G1 F600 X108.82 Y105.992 E100.43944
G0 F1200 X108.82 Y106.557
G1 F600 X93.443 Y91.18 E101.16272
G0 F1200 X92.877 Y91.18
G1 F600 X108.82 Y107.123 E101.91263
G0 F1200 X108.82 Y107.689
G1 F600 X92.311 Y91.18 E102.68916
G0 F1200 X91.746 Y91.18
G1 F600 X108.82 Y108.255 E103.4923
G0 F1200 X108.82 Y108.82
G1 F600 X91.18 Y91.18 E104.32203
G0 F1200 X91.18 Y91.746
G1 F600 X108.254 Y108.819 E105.12511
G0 F1200 X107.688 Y108.819
G1 F600 X91.18 Y92.311 E105.9016
G0 F1200 X91.18 Y92.877
G1 F600 X107.122 Y108.819 E106.65146
G0 F1200 X106.557 Y108.819
G1 F600 X91.18 Y93.443 E107.37473
G0 F1200 X91.18 Y94.008
G1 F600 X105.991 Y108.819 E108.07139
G0 F1200 X105.425 Y108.819
G1 F600 X91.18 Y94.574 E108.74143
G0 F1200 X91.18 Y95.14
G1 F600 X104.86 Y108.819 E109.38487
G0 F1200 X104.294 Y108.819
G1 F600 X91.18 Y95.705 E110.00171
G0 F1200 X91.18 Y96.271
G1 F600 X103.728 Y108.819 E110.59193
G0 F1200 X103.163 Y108.819
G1 F600 X91.18 Y96.837 E111.15555
G0 F1200 X91.18 Y97.403
G1 F600 X102.597 Y108.819 E111.69255
G0 F1200 X102.031 Y108.819
G1 F600 X91.18 Y97.968 E112.20295
G0 F1200 X91.18 Y98.534
G1 F600 X101.466 Y108.819 E112.68675
G0 F1200 X100.9 Y108.819
G1 F600 X91.18 Y99.1 E113.14392
G0 F1200 X91.18 Y99.665
G1 F600 X100.334 Y108.819 E113.5745
G0 F1200 X99.769 Y108.819
G1 F600 X91.18 Y100.231 E113.97848
G0 F1200 X91.18 Y100.797
G1 F600 X99.203 Y108.819 E114.35583
G0 F1200 X98.637 Y108.819
G1 F600 X91.18 Y101.362 E114.70658
G0 F1200 X91.18 Y101.928
G1 F600 X98.071 Y108.819 E115.03072
G0 F1200 X97.506 Y108.819
G1 F600 X91.18 Y102.494 E115.32825
G0 F1200 X91.18 Y103.059
G1 F600 X96.94 Y108.819 E115.59918
G0 F1200 X96.374 Y108.819
G1 F600 X91.18 Y103.625 E115.84349
G0 F1200 X91.18 Y104.191
G1 F600 X95.809 Y108.819 E116.0612
G0 F1200 X95.243 Y108.819
G1 F600 X91.18 Y104.756 E116.25231
G0 F1200 X91.18 Y105.322
G1 F600 X94.677 Y108.819 E116.4168
G0 F1200 X94.112 Y108.819
G1 F600 X91.18 Y105.888 E116.55469
G0 F1200 X91.18 Y106.454
G1 F600 X93.546 Y108.819 E116.66595
G0 F1200 X92.98 Y108.819
G1 F600 X91.18 Y107.019 E116.75062
G0 F1200 X91.18 Y107.585
G1 F600 X92.415 Y108.819 E116.80869
G0 F1200 X91.849 Y108.819
G1 F600 X91.18 Y108.151 E116.84013
G0 F1200 X91.18 Y108.716
G1 F600 X91.283 Y108.819 E116.84498
G0 F1200 X91.283 Y108.79
;MESH:NONMESH
G0 F600 X91.283 Y108.79 Z0.9
G0 F1200 X109.12 Y109.12
G0 X109.4 Y109.4
;TIME_ELAPSED:327.195489
;LAYER:3
;TYPE:WALL-INNER
;MESH:PracticePartv2.STL
G1 X109.4 Y90.6 E117.47027
G1 X90.6 Y90.6 E118.09556
G1 X90.6 Y109.4 E118.72085
G1 X109.4 Y109.4 E119.34614
G0 X109.8 Y109.8
;TYPE:WALL-OUTER
G1 F600 X109.8 Y90.2 E119.99804
G1 X90.2 Y90.2 E120.64994
G1 X90.2 Y109.8 E121.30184
G1 X109.8 Y109.8 E121.95373
G0 F1200 X109.8 Y109.6
G0 X109.02 Y109.02
;TYPE:SKIN
G1 F600 X90.98 Y109.02 E122.55375
G1 X90.98 Y90.98 E123.15376
G1 X109.02 Y90.98 E123.75377
G1 X109.02 Y109.02 E124.35379
G0 F1200 X108.819 Y108.404
G1 F600 X108.403 Y108.82 E124.37335
G0 F1200 X107.837 Y108.82
G1 F600 X108.819 Y107.838 E124.41954
G0 F1200 X108.819 Y107.272
G1 F600 X107.272 Y108.82 E124.49233
G0 F1200 X106.706 Y108.82
G1 F600 X108.819 Y106.707 E124.59172
G0 F1200 X108.819 Y106.141
G1 F600 X106.14 Y108.82 E124.71773
G0 F1200 X105.575 Y108.82
G1 F600 X108.819 Y105.575 E124.87034
G0 F1200 X108.819 Y105.01
G1 F600 X105.009 Y108.82 E125.04956
G0 F1200 X104.443 Y108.82
G1 F600 X108.819 Y104.444 E125.25539
G0 F1200 X108.819 Y103.878
G1 F600 X103.878 Y108.82 E125.48782
G0 F1200 X103.312 Y108.82
G1 F600 X108.819 Y103.313 E125.74685
G0 F1200 X108.819 Y102.747
G1 F600 X102.746 Y108.82 E126.03251
G0 F1200 X102.18 Y108.82
G1 F600 X108.819 Y102.181 E126.34479
G0 F1200 X108.819 Y101.615
G1 F600 X101.615 Y108.82 E126.68367
G0 F1200 X101.049 Y108.82
G1 F600 X108.819 Y101.05 E127.04914
G0 F1200 X108.819 Y100.484
G1 F600 X100.483 Y108.82 E127.44124
G0 F1200 X99.918 Y108.82
G1 F600 X108.819 Y99.918 E127.85994
G0 F1200 X108.819 Y99.353
G1 F600 X99.352 Y108.82 E128.30524
G0 F1200 X98.786 Y108.82
G1 F600 X108.819 Y98.787 E128.77716
G0 F1200 X108.819 Y98.221
G1 F600 X98.221 Y108.82 E129.27568
G0 F1200 X97.655 Y108.82
G1 F600 X108.819 Y97.656 E129.8008
G0 F1200 X108.819 Y97.09
G1 F600 X97.089 Y108.82 E130.35255
G0 F1200 X96.524 Y108.82
G1 F600 X108.819 Y96.524 E130.93089
G0 F1200 X108.819 Y95.959
G1 F600 X95.958 Y108.82 E131.53583
G0 F1200 X95.392 Y108.82
